!!!COM: Schubert, Franz
!!!CDT: 1797/01/31/-1828/11/19/
!!!CNT: Austrian
!!!OTL@@DE: Variationen &uuml;ber ein Thema von Anselm H&uuml;ttenbrenner
!!!OTL@EN: 13 Variations on a Theme by Anselm H&uuml;ttenbrenner
!!!OKY: A Minor
!!!SCT: D 576
!!!PDT: 1867///
!!!ODT: 1817/08//
!!!YEC: Copyright 2001 by Craig Stuart Sapp
!!!YEN: United States of America
!!!OMD: Var. 7
**kern	**kern
*clefF4	*clefG2
*k[]	*k[]
*a:	*a:
*M2/4	*M2/4
*MM72	*MM72
*>[A,A,B,B]	*>[A,A,B,B]
*>A	*>A
24AA'	4A 4c 4e
24GG#'	.
24AA'	.
24BB'	.
24C'	.
24D'	.
24E	8G# 8B 8e
24D	.
24BB'	.
24D	8A 8c 8e
24C	.
24AA'	.
=118	=118
24GG#'	4B 4d 4e
24AA'	.
24BB'	.
24EE'	.
24DD#'	.
24EE'	.
24FF#	8A 8d 8e
24EE	.
24FF#'	.
24GG	8B 8d 8e
24FF#	.
24GG'	.
=119	=119
24AA'	4A 4c 4e
24C'	.
24BB'	.
24AA'	.
24GGn'	.
24FFn'	.
24EE'	4A 4d 4f
24DD'	.
24CC#'	.
24DD'	.
24EE'	.
24FF'	.
=120	=120
24GG'	2B 2d
24AA-'	.
24AA'	.
24BB-'	.
24BBn'	.
24C'	.
24C#'	.
24D'	.
24D#'	.
24E'	.
24F'	.
24F#'	.
=121	=121
24G'	4B 4d 4f 4g
24D'	.
24BB'	.
24GG'	.
24FF#'	.
24GG'	.
24AA	8c 8f 8g
24GG	.
24AA'	.
24BB	8d 8f 8g
24AA	.
24BB'	.
=122	=122
24C	4c 4e 4g
24D	.
24E	.
24D	.
24C	.
24BB	.
*	*^
24AA	8.c 8.e	4a
24C	.	.
24BB	.	.
24AA	.	.
24GG	.	.
.	16A 16d	.
24FF	.	.
*	*v	*v
=123	=123
24EE	4B 4e 4a
24DD#	.
24EE	.
24AA	.
24GG	.
24FF	.
24EE	4B 4e 4g#
24FF	.
24EE	.
24DDn	.
24CC	.
24BBB	.
=124	=124
24AAA	2c 2e 2a
24CC	.
24DD	.
24EE	.
24FF#	.
24GG#	.
24AA	.
24C	.
24E	.
8A	.
=125:|!|:	=125:|!|:
*>B	*>B
24AAA	4c# 4gn 4a
24CC#	.
24EE	.
24AA	.
24GG#	.
24AA	.
24BB	8d 8g 8a
24AA	.
24BB'	.
24C#	8e 8g 8a
24BB	.
24C#'	.
=126	=126
24D	4d 4f 4a
24F	.
24G	.
24A	.
24F	.
24E	.
24D	8f 8a
24DD	.
24D	.
24CC	8e 8a
24C	.
24CC	.
=127	=127
24BBB	4d# 4a 4b
24DD#	.
24FF#	.
24BB	.
24AA#	.
24BB	.
24C#	8e 8a 8b
24BB	.
24C#	.
24D#	8f# 8a 8b
24C#	.
24D#	.
=128	=128
24E	4g# 4b
24F#	.
24E	.
24D#	.
24E	.
24D#	.
24E	8gn 8b
24Fn	.
24E	.
24Dn	8fn 8g 8b
24E	.
24D	.
=129	=129
24C	4e 4g 4cc
24D	.
24C	.
24BB	.
24C	.
24BB	.
24AA	8e 8a 8cc#
24BB	.
24AA	.
24GG	8e 8a# 8cc#
24AA	.
24GG	.
=130	=130
24FF#	4d 4an 4dd
24GG	.
24FF#	.
24D	.
24AA	.
24FF#	.
24FFn	4d# 4a 4ccn 4dd#
24EE	.
24FF	.
24C	.
24AA	.
24FF	.
=131	=131
24EE	4e 4a 4cc 4ee
24FF	.
24EE	.
24C	.
24BB	.
24AA	.
24E	4e 4g# 4b 4ee
24D#	.
24E	.
24DDn	.
24CC	.
24BBB	.
=132	=132
24AAA	4e 4a 4cc 4ee
24CC	.
24DD	.
24EE	.
24FF#	.
24GG#	.
8AA	4r
8r	.
=:|!	=:|!
*-	*-
